logos/lightstep.svg

<?xml version="1.0" encoding="UTF-8"?>
<svg width="512px" height="117px" viewBox="0 0 512 117" version="1.1" xmlns="http://www.w3.org/2000/svg" xmlns:xlink="http://www.w3.org/1999/xlink" preserveAspectRatio="xMidYMid">
    <title>Lightstep</title>
    <g>
				<g>
						<path d="M77.141327,76.7434653 C87.5620228,76.7434653 96.0097719,68.2957162 96.0097719,57.8748153 C96.0097719,47.4541194 87.5620228,39.0063704 77.141327,39.0063704 C66.7206311,39.0063704 58.2728821,47.4541194 58.2728821,57.8748153 C58.2728821,68.2957162 66.7206311,76.7434653 77.141327,76.7434653 Z" fill="#039C49"></path>
						<path d="M71.7322893,0.262926899 L10.7241876,32.9683367 C10.0952326,33.3456112 9.59207678,33.9746073 9.46629809,34.6036033 L0.0320551297,76.743055 C-0.0937338191,77.372051 0.15784613,77.8752889 0.661003977,78.1268052 L80.411655,115.737937 C81.040651,115.989453 81.7954052,115.989453 82.5501595,115.737937 L133.49494,92.5926882 C134.249694,92.2152085 134.752932,91.5864177 134.87869,90.8316634 L153.747135,6.30081285 C153.872893,5.67187837 153.495619,4.91716519 152.740865,4.79136598 C152.615107,4.79136598 152.615107,4.79136598 152.489348,4.79136598 L72.8643181,0.137129744 C72.6128017,-0.114449795 72.1095639,0.0113476271 71.7322893,0.262926899 Z M81.040651,112.467404 L8.33416678,78.2525634 L34.2469159,78.2525634 L95.0032962,86.9321342 L81.040651,112.467404 Z M98.2738293,87.3094088 L128.211866,91.5864177 L85.1916966,111.209617 L98.2738293,87.3094088 Z M36.7626949,75.4852681 L59.7821853,30.2008362 L130.727645,22.0245033 L96.6385627,84.0388756 L36.7626949,75.4852681 Z M132.866149,18.7540111 L61.2916938,27.0560612 L73.4933141,3.03027967 L147.960823,7.43292365 L132.866149,18.7540111 Z M57.7696442,27.4335409 L18.7747213,31.961861 L69.2165104,5.04292337 L57.7696442,27.4335409 Z M12.233655,35.735632 L56.1343776,30.7040741 L33.4921617,75.2337517 L3.428367,75.2337517 L12.233655,35.735632 Z M132.237153,89.1963969 L99.7833378,84.5421134 L134.627174,21.269749 L149.973569,9.82296497 L132.237153,89.1963969 Z" fill="#121C21"></path>
				</g>
				<path d="M202.050379,66.9312503 L222.805402,66.9312503 L222.805402,76.7428498 L189.974517,76.7428498 L189.974517,24.7917986 L202.050379,24.7917986 L202.050379,66.9312503 Z M229.347699,76.7428498 L240.667986,76.7428498 L240.667986,39.1317182 L229.347699,39.1317182 L229.347699,76.7428498 Z M235.007842,21.0180275 C231.233046,21.0180275 228.088066,24.1628026 228.088066,27.9365736 C228.088066,31.7101395 231.233046,34.8549145 235.007842,34.8549145 C238.780588,34.8549145 241.925568,31.7101395 241.925568,27.9365736 C241.925568,24.1628026 238.780588,21.0180275 235.007842,21.0180275 Z M276.140818,39.0059601 L286.706146,39.0059601 L286.706146,73.3465585 C286.706146,85.9256585 279.285799,93.7245118 267.335695,93.7245118 C256.390835,93.7245118 248.843293,87.8124415 248.718151,78.5038746 L260.04049,78.1266001 C260.165632,81.774613 263.183418,84.6676665 266.958215,84.5419083 L267.083358,84.5419083 C272.493216,84.5419083 275.511002,81.0198587 275.511002,74.7303087 L275.511002,68.8182384 C273.87594,71.9630134 270.353481,74.4787924 265.070817,74.4787924 C254.882968,74.4787924 247.083089,66.9312503 247.083089,56.1133802 C247.083089,45.7985428 254.630631,37.7481731 265.448296,37.7481731 C270.228338,37.7481731 274.756042,40.5154685 276.393155,44.1632762 L276.393155,39.0059601 L276.140818,39.0059601 Z M276.015676,56.3651017 C276.015676,51.4593019 271.988542,47.4340145 267.083358,47.4340145 C262.178173,47.4340145 258.153091,51.4593019 258.153091,56.3651017 C258.153091,61.2709015 262.178173,65.2959837 267.083358,65.2959837 C271.988542,65.2959837 276.015676,61.2709015 276.015676,56.3651017 Z M315.89107,38.2512058 C311.236171,38.1254477 306.958752,40.892743 305.198548,45.2955101 L305.198548,24.7917986 L293.876209,24.7917986 L293.876209,76.7428498 L305.198548,76.7428498 L305.198548,55.987622 C305.198548,50.7043426 307.713711,47.5597727 311.99113,47.5597727 C316.26855,47.5597727 318.65857,50.4528262 318.65857,55.358626 L318.65857,76.7428498 L329.978858,76.7428498 L329.978858,53.5976012 C329.978858,44.4149977 324.318714,38.376964 315.89107,38.2512058 Z M350.859228,30.2006311 L339.664084,30.2006311 L339.664084,39.1317182 L333.374123,39.1317182 L333.374123,48.0628054 L339.664084,48.0628054 L339.664084,62.5286884 C339.664084,72.0887716 345.451422,76.7428498 352.998964,76.7428498 L358.531913,76.7428498 L358.40677,67.1829718 L355.891607,67.1829718 C352.49429,67.1829718 350.859228,65.421947 350.859228,62.0254505 L350.859228,47.9370472 L358.78425,47.9370472 L358.78425,39.0059601 L350.859228,39.0059601 L350.859228,30.2006311 Z M416.899709,30.2006311 L405.704564,30.2006311 L405.704564,39.1317182 L399.414604,39.1317182 L399.414604,48.0628054 L405.704564,48.0628054 L405.704564,62.5286884 C405.704564,72.0887716 411.48985,76.7428498 419.037393,76.7428498 L424.572394,76.7428498 L424.447251,67.1829718 L421.930036,67.1829718 C418.53477,67.1829718 416.899709,65.421947 416.899709,62.0254505 L416.899709,47.9370472 L424.82473,47.9370472 L424.82473,39.0059601 L416.899709,39.0059601 L416.899709,30.2006311 Z M511.995867,57.874405 C511.995867,69.4470293 504.575519,77.4976041 493.882997,77.4976041 C489.480435,77.6233622 485.455353,75.4850629 482.938138,71.8370501 L482.938138,90.7057001 L471.61785,90.7057001 L471.61785,39.1317182 L482.938138,39.1317182 L482.938138,44.4149977 C484.825536,40.7669848 489.355292,38.376964 493.882997,38.376964 C504.700662,38.376964 511.995867,46.3017806 511.995867,57.874405 Z M500.550437,57.874405 C500.550437,51.8365764 496.77564,47.5597727 491.492976,47.5597727 C486.210312,47.5597727 482.310372,51.8365764 482.310372,57.874405 C482.310372,63.9124386 486.083118,68.0634842 491.492976,68.0634842 C496.900783,68.0634842 500.550437,64.0381968 500.550437,57.874405 Z M466.712666,57.4971304 C466.712666,58.6291592 466.585472,59.8871512 466.460329,61.01918 L440.044957,61.01918 L440.044957,61.1449381 C440.1701,65.6734634 443.817703,69.1955129 448.347459,69.1955129 C452.120204,69.1955129 454.635368,67.6860045 455.895001,64.6671928 L465.455084,66.4282176 C463.817971,73.2208003 457.025388,77.8750837 448.220265,77.8750837 C436.774834,77.8750837 428.597476,69.6987508 428.597476,58.0001631 C428.597476,46.3017806 436.522498,37.9996895 447.842785,37.9996895 C458.912787,37.9996895 466.712666,45.9245061 466.712666,57.4971304 Z M455.517521,53.9748757 C455.517521,53.8491176 455.517521,53.5976012 455.517521,53.471843 C455.265184,49.3207975 451.869919,46.1760225 447.717642,46.4275388 L447.592499,46.4275388 C443.440223,46.4275388 440.044957,49.8238302 440.044957,53.9748757 L455.517521,53.9748757 Z M383.56456,53.3460849 L378.534233,52.5913306 C376.269355,52.213851 375.011773,51.0818222 375.011773,49.4465556 C375.011773,47.3080512 377.024314,45.6727846 379.791815,45.6727846 C382.809601,45.5470264 385.451959,47.811289 385.704296,50.8303059 L395.892144,50.5785844 C395.514664,43.0312474 389.099561,37.7481731 379.791815,37.7481731 C370.482017,37.7481731 364.194108,43.1570056 364.194108,50.7045477 C364.194108,57.2456141 367.966854,61.1449381 376.144212,62.4029302 L381.174539,63.1576844 C384.444662,63.6607171 386.081775,64.5412295 386.081775,66.8054921 C386.081775,69.0697547 383.94204,70.2017835 380.671917,70.2017835 C376.771978,70.2017835 374.256814,68.1892424 374.004477,65.0444674 L363.564292,65.2959837 C363.816629,72.8435258 370.859497,78.1266001 380.671917,78.1266001 C390.484337,78.1266001 397.024583,72.969284 397.024583,65.421947 C397.024583,58.8806755 392.369684,54.6038718 383.56456,53.3460849 Z" fill="#121C21"></path>
    </g>
</svg>

<svg preserveAspectRatio="xMidYMid" viewBox="0 0 512 117" xmlns="http://www.w3.org/2000/svg">
  <path fill="#039C49" d="M77.141 76.743c10.421 0 18.869-8.447 18.869-18.868 0-10.42-8.448-18.869-18.869-18.869-10.42 0-18.868 8.448-18.868 18.869 0 10.42 8.448 18.868 18.868 18.868Z"/>
  <path fill="#121C21" d="M71.732.263 10.724 32.968c-.629.378-1.132 1.007-1.258 1.636L.032 76.744c-.126.628.126 1.131.629 1.383l79.75 37.61c.63.252 1.384.252 2.14 0l50.944-23.144c.755-.378 1.258-1.007 1.384-1.761L153.747 6.3c.126-.63-.251-1.384-1.006-1.51h-.252L72.864.137c-.251-.251-.754-.126-1.132.126Zm9.309 112.204L8.334 78.253h25.913l60.756 8.68-13.962 25.534ZM98.274 87.31l29.938 4.277-43.02 19.624 13.082-23.9ZM36.763 75.485l23.02-45.284 70.945-8.176-34.09 62.014-59.875-8.554Zm96.103-56.731-71.574 8.302L73.493 3.03l74.468 4.403-15.095 11.321Zm-75.096 8.68-38.995 4.528 50.442-26.92L57.77 27.435Zm-45.536 8.302 43.9-5.032-22.642 44.53H3.428l8.806-39.498Zm120.003 53.46-32.454-4.654 34.844-63.272 15.347-11.447-17.737 79.373Z"/>
  <path fill="#121C21" d="M202.05 66.931h20.755v9.812h-32.83V24.792h12.075v42.14Zm27.298 9.812h11.32V39.132h-11.32v37.61Zm5.66-55.725c-3.775 0-6.92 3.145-6.92 6.919 0 3.773 3.145 6.918 6.92 6.918 3.773 0 6.918-3.145 6.918-6.918 0-3.774-3.145-6.919-6.918-6.919Zm41.133 17.988h10.565v34.34c0 12.58-7.42 20.379-19.37 20.379-10.945 0-18.493-5.913-18.618-15.221l11.322-.377c.126 3.648 3.143 6.54 6.918 6.415h.125c5.41 0 8.428-3.522 8.428-9.812v-5.912c-1.635 3.145-5.158 5.66-10.44 5.66-10.188 0-17.988-7.547-17.988-18.365 0-10.314 7.548-18.365 18.365-18.365 4.78 0 9.308 2.767 10.945 6.415v-5.157h-.252Zm-.125 17.36c0-4.907-4.027-8.932-8.933-8.932-4.905 0-8.93 4.025-8.93 8.931 0 4.906 4.025 8.931 8.93 8.931 4.906 0 8.933-4.025 8.933-8.93ZM315.89 38.25a11.177 11.177 0 0 0-10.692 7.045V24.792h-11.323v51.95H305.2V55.989c0-5.284 2.515-8.428 6.792-8.428 4.278 0 6.668 2.893 6.668 7.799v21.384h11.32V53.598c0-9.183-5.66-15.221-14.088-15.347Zm34.968-8.05h-11.195v8.93h-6.29v8.932h6.29v14.466c0 9.56 5.787 14.214 13.335 14.214h5.533l-.125-9.56h-2.515c-3.398 0-5.033-1.761-5.033-5.158V47.937h7.925v-8.931h-7.925v-8.805Zm66.04 0h-11.194v8.93h-6.29v8.932h6.29v14.466c0 9.56 5.785 14.214 13.332 14.214h5.535l-.125-9.56h-2.517c-3.395 0-5.03-1.761-5.03-5.158V47.937h7.925v-8.931H416.9v-8.805Zm95.097 27.673c0 11.573-7.42 19.624-18.113 19.624-4.403.125-8.428-2.013-10.945-5.66v18.868h-11.32V39.132h11.32v5.283c1.888-3.648 6.417-6.038 10.945-6.038 10.818 0 18.113 7.925 18.113 19.497Zm-11.446 0c0-6.037-3.774-10.314-9.057-10.314s-9.183 4.277-9.183 10.314c0 6.038 3.773 10.19 9.183 10.19 5.408 0 9.057-4.026 9.057-10.19Zm-33.837-.377c0 1.132-.128 2.39-.253 3.522h-26.415v.126c.125 4.528 3.773 8.05 8.302 8.05 3.773 0 6.288-1.509 7.548-4.528l9.56 1.761c-1.637 6.793-8.43 11.447-17.235 11.447-11.445 0-19.623-8.176-19.623-19.875 0-11.698 7.925-20 19.246-20 11.07 0 18.87 7.925 18.87 19.497Zm-11.195-3.522v-.503c-.253-4.151-3.648-7.296-7.8-7.044h-.126c-4.152 0-7.547 3.396-7.547 7.547h15.473Zm-71.953-.629-5.03-.755c-2.266-.377-3.523-1.51-3.523-3.144 0-2.139 2.012-3.774 4.78-3.774 3.018-.126 5.66 2.138 5.912 5.157l10.188-.251c-.377-7.548-6.792-12.83-16.1-12.83-9.31 0-15.598 5.408-15.598 12.956 0 6.54 3.773 10.44 11.95 11.698l5.03.755c3.27.503 4.908 1.383 4.908 3.647 0 2.265-2.14 3.397-5.41 3.397-3.9 0-6.415-2.013-6.668-5.158l-10.44.252c.253 7.548 7.295 12.83 17.108 12.83 9.812 0 16.353-5.157 16.353-12.704 0-6.541-4.655-10.818-13.46-12.076Z"/>
</svg>
